X:1
T:Trusting in Jesus Alone
T:Trusting in Jesus Alone
T:Eden Reeder Ramer
T:Eden Reeder Ramer, 1909
T:Public Domain Courtesy of the Cyber Hymnal™
C:Eden Reeder Ramer
Z:Public Domain
Z:Courtesy of the Cyber Hymnal™
%%score ( 1 2 ) ( 3 4 )
L:1/8
Q:1/4=97
M:4/4
K:C
V:1 treble 
V:2 treble 
V:3 bass 
V:4 bass 
V:1
 [EG]2 [EG][FA] [EG]2 [Gc][Gd] | [Ge]2 [Ge][Fd] [Ec]4 | [Ac]2 [GB][FA] [EG]2 [Cc][Ec] | %3
w: 1.~Trust- ing in Je- sus thro’|weal or thro’ woe,|Trust- ing in Je- sus wher-|
w: 2.~Trust- ing in Je- sus when|bur- dens op- press,|Trust- ing in Je- sus in|
w: 3.~Trust- ing in Je- sus my|need to sup- ly,|Trust- ing in Je- sus when|
w: 4.~Trust- ing in Je- sus thro’|gleam or thro’ gloom,|Trust- ing in Je- sus wher-|
 [GB]2 [FB][Ec] [Gd]4 | [Gd]2 [Gd][Ge] [Gf]2 [FB][FB] | [Ec]2 [Ec][Ad] [^Ge]4 | %6
w: ev- er I go;|Trust- ing in Je- sus no|e- vil I know,|
w: times of dis- tress,|Trust- ing in Je- sus to|com- fort and bless,|
w: dan- gers are nigh;|Trust- ing in Je- sus, on|Him I re- ly,|
w: ev- er I roam,|Trust- ing in Je- sus till|I reach my home,|
 [FA]2 [^DB][Dc] [Ec]2 [=DB][Fd] | [Ec]6 z2 ||"^Refrain" [Ge]2 [EG][FA] [EG]2 [Ec][Ge] | %9
w: Trust- ing in Je- sus a-|lone.||
w: Trust- ing in Je- sus a-|lone.||
w: Trust- ing in Je- sus a-|lone.||
w: Trust- ing in Je- sus a-|lone.||
 ([Gd]2 [^FA]2 [=Fd]4) | [Fd]2 [FG][FA] [FG]2 [Fd][Ge] | c6 [Ec][GB] | %12
w: |||
w: |||
w: |||
w: |||
 [FA]2 [GA][GA] [^Fd]2 [Dc][DA] | [EG]2 [Gc][Gd] [Ge]4 | [FA]2 [^DB][Dc] [Ec]2 [=DB][Fd] | [Ec]6 |] %16
w: ||||
w: ||||
w: ||||
w: ||||
V:2
 x8 | x8 | x8 | x8 | x8 | x8 | x8 | x8 || x8 | x8 | x8 | (E2 F2 E2) x2 | x8 | x8 | x8 | x6 |] %16
V:3
 [C,C]2 [C,C][C,C] [C,C]2 [E,C][G,B,] | C2 [G,B,][G,B,] [C,C]4 | %2
w: |Trust- * * *|
 [F,C]2 [F,C][F,C] [C,C]2 [E,G,][C,G,] | G,2 [G,D][G,C] [G,B,]4 | %4
w: |ing * * *|
 [G,B,]2 [G,B,][G,C] [G,D]2 [G,D][G,D] | [A,C]2 A,[F,A,] [E,B,]4 | (A,C)[^F,B,][F,A,] G,2 G,G, | %7
w: |* in * *|* * * * Je- sus a-|
 [C,G,]6 z2 || [C,C]2 [C,C][C,C] [C,C]2 [C,G,][C,C] | ([G,B,]2 [A,C]2 [G,B,]4) | %10
w: |lone, Trust- ing in Je- sus|a- * *|
 [G,B,]2 [G,D][G,C] [G,B,]2 [G,B,][G,B,] | ([A,C]2 [F,A,]2 [C,G,]2) [C,G,][E,C] | %12
w: lone; There is naught to of-|fend, * * On His|
 [F,C]2 [E,^C][E,C] [D,D]2 [^F,A,][F,=C] | [G,C]2 [E,C][D,B,] [C,C]4 | %14
w: love I de- pend, Trust- ing|in Je- sus a-|
 [F,C]2 [^F,B,][F,A,] G,2 G,G, | [C,G,]6 |] %16
w: lone. * * * * *||
V:4
 x8 | C2 x6 | x8 | G,2 x6 | x8 | x2 A, x5 | ^F,2 x G,2 G,G, x | x8 || x8 | x8 | x8 | x8 | x8 | x8 | %14
 x4 G,2 G,G, | x6 |] %16

